!!!COM: Haydn, Franz Joseph
!!!OPR: String Quartet in A Major
!!!ONM: Opus 20, No. 6
!!!OTL:
!!!OMV: 1
!!!SCT: H III:36
!!!SCA: Thematisch-bibliographisches Werkevererzeichnis (A. van Hoboken)
!!!YOR: Richault Edition, volume 4
!!!EED: Frances Bennion
!!!ENC: Frances Bennion
!!!CDT: 1732/3/31/-1809/5/31/
!!!OCY: Österreich
!!!YEC: Copyright (c) 1994, 2000 Center for Computer Assisted Research in the Humanities
!!!YEM: Rights to all derivative editions reserved.
!!!YEM: Refer to licensing agreement for further details.
!!!YEN: United States of America
**kern	**kern	**kern	**kern	**kern
*k[f#c#g#]	*k[f#c#g#]	*k[f#c#g#]	*k[f#c#g#]	*k[f#c#g#]
*A:	*A:	*A:	*A:	*A:
*clefF	*clefF	*clefF	*clefC3	*clefF4
*M6/8	*M6/8	*M6/8	*M6/8	*M6/8
*tb32	*tb32	*tb32	*tb32	*tb32
=1	=1	=1	=1	=1
4.a	2.r	8r	8r	8r
.	.	8c#	8e	8A
.	.	8c#	8e	8A
16cc#	.	4c#	4e	4A
16a	.	.	.	.
16ee	.	.	.	.
16cc#	.	.	.	.
16a	.	8r	8r	8r
16e	.	.	.	.
=2	=2	=2	=2	=2
8c#	2.r	4r	4r	4r
8A	.	.	.	.
8B	.	8G#	8E	8E
8c#	.	4A	4E	4A
8A	.	.	.	.
8r	.	8r	8r	8r
=3	=3	=3	=3	=3
8b	8e	8r	8r	8r
4r	4r	8b	8g#	8E
.	.	8b	8g#	8E
8cc#	8a	8r	8r	8r
4r	4r	8cc#	8a	8AA
.	.	8cc#	8a	8AA
=4	=4	=4	=4	=4
8dd	8e	8r	8r	8r
16dd	8e	8b	8e	8GG#
16cc#	.	.	.	.
8dd	8e	8b	8e	8GG#
8cc#	8e	8a	8e	4AA
4r	4r	4r	4r	.
.	.	.	.	8r
=5	=5	=5	=5	=5
4.a	2.r	8r	8r	8r
.	.	8c#	8e	8A
.	.	8c#	8e	8A
16cc#	.	8c#	4e	4A
16a	.	.	.	.
16ee	.	4r	.	.
16cc#	.	.	.	.
16a	.	.	8r	8r
16e	.	.	.	.
=6	=6	=6	=6	=6
8c#	2.r	4r	4r	4r
8A	.	.	.	.
8B	.	8G#	8E	8E
8c#	.	4A	4E	4A
8A	.	.	.	.
8r	.	8r	8r	8r
=7	=7	=7	=7	=7
8f#	8d	8r	8r	8r
4r	4r	8f#	8A	8D
.	.	8f#	8A	8D
8e	8c#	8r	8r	8r
4r	4r	8e	8c#	8A
.	.	8e	8A	8A
=8	=8	=8	=8	=8
16B	2.r	8e	4.B	4.G#
16e	.	.	.	.
16g#	.	8d	.	.
16e	.	.	.	.
16ee	.	8d	.	.
16e	.	.	.	.
16cc#	.	4.c#	4.c#	4.A
16e	.	.	.	.
16c#	.	.	.	.
16e	.	.	.	.
16A	.	.	.	.
16e	.	.	.	.
=9	=9	=9	=9	=9
16B	2.r	4.d	4.B	4.G#
16e	.	.	.	.
16g#	.	.	.	.
16e	.	.	.	.
16ee	.	.	.	.
16e	.	.	.	.
16cc#	.	4.c#	4.c#	4.A
16e	.	.	.	.
16c#	.	.	.	.
16e	.	.	.	.
16A	.	.	.	.
16e	.	.	.	.
=10	=10	=10	=10	=10
16B	2.r	4.d	4.B	4.G#
16e	.	.	.	.
16g#	.	.	.	.
16e	.	.	.	.
16ee	.	.	.	.
16e	.	.	.	.
8cc#	.	8c#	8c#	8A
4r	.	4r	4r	4r
=11	=11	=11	=11	=11
4.a	2.r	8r	8r	8r
.	.	8c#	8e	8A
.	.	8c#	8e	8A
16cc#	.	4c#	4e	4A
16a	.	.	.	.
16ee	.	.	.	.
16cc#	.	.	.	.
16a	.	8r	8r	8r
16e	.	.	.	.
=12	=12	=12	=12	=12
8c#	2.r	4r	4r	4r
8A	.	.	.	.
8B	.	8G#	8E	8E
8c#	.	4A	4E	4A
8A	.	.	.	.
8r	.	8r	8r	8r
=13	=13	=13	=13	=13
2.r	2.r	8dd	8b	2.r
.	.	8b	8g#	.
.	.	8cc#	8a	.
.	.	8dd	8b	.
.	.	8b	8g#	.
.	.	8r	8r	.
=14	=14	=14	=14	=14
8cc#	2.r	8e	8a	8A
8cc#	.	8e	8a	8A
8cc#	.	8e	8a	8A
8cc#	.	8a	8f#	8F#
16cc#	.	8a	8f#	8F#
16dd	.	.	.	.
8cc#	.	8a	8f#	8F#
=15	=15	=15	=15	=15
[2bb	2.r	[4.gg#	[2cc#	2.E#
.	.	4gg#]	.	.
8bb]	.	.	8cc#]	.
16gg#	.	8cc#	8b	.
32ff#	.	.	.	.
32gg#	.	.	.	.
=16	=16	=16	=16	=16
8aa	2.r	4cc#	4a	4F#
16ee#	.	.	.	.
32dd#	.	.	.	.
32ee#	.	.	.	.
8ff#	.	2r	2r	2r
16cc#	.	.	.	.
32b	.	.	.	.
32cc#	.	.	.	.
8dd	.	.	.	.
16b	.	.	.	.
32a	.	.	.	.
32b	.	.	.	.
=17	=17	=17	=17	=17
8cc#	2.r	4.r	4.r	4.r
16g#	.	.	.	.
32f#	.	.	.	.
32g#	.	.	.	.
8a	.	.	.	.
8e#	.	8e#	8e#	8E#
8f#	.	8f#	8f#	8F#
8a	.	8a	8a	8A
=18	=18	=18	=18	=18
4.c	2.r	4.c	4.c	4.C
4B	.	4B	4B	4BB
8A#	.	8A#	8A#	8AA#
=19	=19	=19	=19	=19
4B	2.r	8B	8B	4BB
.	.	8a	8f#	.
8B	.	8a	8f#	8r
4d#	.	8r	8r	4BB
.	.	8a	8f#	.
8d#	.	8a	8f#	8r
=20	=20	=20	=20	=20
4f#	2.r	8r	8r	4BB
.	.	8a	8d#	.
8f#	.	8a	8d#	8r
4a	.	8r	8r	4BB
.	.	8f#	8d#	.
8a	.	8f#	8d#	8r
=21	=21	=21	=21	=21
2cc#	2.r	2a	8r	4BB
.	.	.	8d#	.
.	.	.	8d#	2r
.	.	.	8d#	.
8b	.	8g#	8d#	.
8a	.	8f#	8d#	.
=22	=22	=22	=22	=22
16g#	2.r	2e	4e	2.r
16b	.	.	.	.
16g#	.	.	.	.
16b	.	.	.	.
16a	.	.	2r	.
16cc#	.	.	.	.
8f#	.	.	.	.
4r	.	8d#	.	.
.	.	8c#	.	.
=23	=23	=23	=23	=23
16f#	2.r	2d#	2.r	2.r
16a	.	.	.	.
16f#	.	.	.	.
16a	.	.	.	.
16g#	.	.	.	.
16b	.	.	.	.
8e	.	.	.	.
4r	.	8c#	.	.
.	.	8B	.	.
=24	=24	=24	=24	=24
16e	2.r	2c#	2.r	2.r
16g#	.	.	.	.
16e	.	.	.	.
16g#	.	.	.	.
16f#	.	.	.	.
16a	.	.	.	.
16d#	.	.	.	.
16f#	.	.	.	.
16d#	.	8B	.	.
16f#	.	.	.	.
16e	.	8A	.	.
16g#	.	.	.	.
=25	=25	=25	=25	=25
16c#	2.r	2.A	2.r	2.r
16e	.	.	.	.
16c#	.	.	.	.
16e	.	.	.	.
16d#	.	.	.	.
16f#	.	.	.	.
8B	.	.	.	.
8c#	.	.	.	.
8d#	.	.	.	.
=26	=26	=26	=26	=26
8e	2.r	4G#	4r	4r
16g#	.	.	.	.
16b	.	.	.	.
8dd#	.	8f#	8B	8A
8ee	.	8e	4B	4G#
8b	.	16g#	.	.
.	.	16e	.	.
8dd#	.	8B	8f#	8A
=27	=27	=27	=27	=27
8ee	2.r	8e	4e	4G#
8b	.	16g#	.	.
.	.	16e	.	.
8dd#	.	8B	8f#	8A
8ee	.	8B	8e	8G#
8dd#	.	8B	8f#	8A
8ee	.	8B	8e	8G#
=28	=28	=28	=28	=28
8dd#	2.r	8B	8f#	8A
8ee	.	8B	8e	8G#
8dd#	.	8B	8f#	8A
8ee	.	8B	8e	8G#
8dd#	.	8B	8f#	8A
8ee	.	8B	8e	8G#
=29	=29	=29	=29	=29
16dd#	2.r	8B	8a	8F#
16ee	.	.	.	.
16ff#	.	2r	2r	2r
16gg#	.	.	.	.
16aa	.	.	.	.
16bb	.	.	.	.
16aa	.	.	.	.
16gg#	.	.	.	.
16ff#	.	.	.	.
16ee	.	.	.	.
16dd#	.	8r	8r	8r
16cc#	.	.	.	.
=30	=30	=30	=30	=30
8b	2.r	2.r	2.r	2.r
2r	.	.	.	.
8b	.	.	.	.
=31	=31	=31	=31	=31
[2gg	2.r	4.b	4.e	8e
.	.	.	.	8e
.	.	.	.	8e
.	.	4.cc	4.ee	8A
8gg]	.	.	.	8A
8aa	.	.	.	8A
=32	=32	=32	=32	=32
8ff#	2.r	4.cc	4.a	8d
8ee	.	.	.	8d
8dd	.	.	.	8d
4dd	.	4.a	4.d	8F#
.	.	.	.	8F#
8cc	.	.	.	8F#
=33	=33	=33	=33	=33
8b	2.r	4.d	4.g	8G
8a	.	.	.	8G
8b	.	.	.	8G
8cc#	.	4.g	4.e	8A
8b	.	.	.	8A
8cc#	.	.	.	8A
=34	=34	=34	=34	=34
4.dd	2.r	8f#	4d	4D
.	.	16f#	.	.
.	.	16g	.	.
.	.	16a	2r	2r
.	.	16g	.	.
4d	.	4f#	.	.
8dd	.	8r	.	.
=35	=35	=35	=35	=35
8dd	2.r	16f#	8d	2.r
.	.	16a	.	.
8d	.	16f#	8d	.
.	.	16a	.	.
8dd	.	16f#	8d	.
.	.	16a	.	.
8dd	.	16g#	8B	.
.	.	16b	.	.
8d	.	16g#	8B	.
.	.	16b	.	.
8dd	.	16g#	8e	.
.	.	16b	.	.
=36	=36	=36	=36	=36
8cc#	2.r	4a	4A	2.r
16ee	.	.	.	.
16dd	.	.	.	.
16cc#	.	2r	2r	.
16b	.	.	.	.
4a	.	.	.	.
8ee	.	.	.	.
=37	=37	=37	=37	=37
8ee	2.r	16g	8E	2.r
.	.	16b	.	.
8e	.	16g	8e	.
.	.	16b	.	.
8ee	.	16g	8e	.
.	.	16b	.	.
8ee	.	16a#	8c#	.
.	.	16cc#	.	.
8e	.	16a#	8c#	.
.	.	16cc#	.	.
8ee	.	16a#	8f#	.
.	.	16cc#	.	.
=38	=38	=38	=38	=38
8dd#	2.r	4b	4B	2.r
16ff#	.	.	.	.
16ee	.	.	.	.
16dd#	.	2r	2r	.
16cc#	.	.	.	.
4b	.	.	.	.
16dd#	.	.	.	.
16b	.	.	.	.
=39	=39	=39	=39	=39
16gg	2.r	8r	8r	8r
16ee	.	.	.	.
16gg	.	8g	8c#	8A#
16ee	.	.	.	.
16dd#	.	8f#	8d#	8B
16b	.	.	.	.
16gg	.	8r	8r	8r
16ee	.	.	.	.
16gg	.	8g	8c#	8A#
16ee	.	.	.	.
16dd#	.	8f#	8d#	8B
16b	.	.	.	.
=40	=40	=40	=40	=40
16gg	2.r	8r	8r	8r
16ee	.	.	.	.
16gg	.	8g	8c#	8A#
16ee	.	.	.	.
16dd#	.	8f#	8d#	8B
16b	.	.	.	.
16gg	.	8r	8r	8r
16ee	.	.	.	.
16gg	.	8g	8c#	8A#
16ee	.	.	.	.
16dd#	.	8f#	8d#	8B
16b	.	.	.	.
=41	=41	=41	=41	=41
16cc#	2.r	2.r	2.r	2.r
16ee	.	.	.	.
16dd#	.	.	.	.
16ff#	.	.	.	.
16ee	.	.	.	.
16gg#	.	.	.	.
16ff#	.	.	.	.
16aa	.	.	.	.
16gg#	.	.	.	.
16bb	.	.	.	.
16aa	.	.	.	.
16ccc#	.	.	.	.
=42	=42	=42	=42	=42
2bb	2.r	8r	8r	8r
.	.	8b	8e	8G#
.	.	8b	8e	8G#
.	.	[4.b	4.d#	4.F#
8aa#	.	.	.	.
8aa	.	.	.	.
=43	=43	=43	=43	=43
8gg#	2.r	8b]	8e	8E
8ff#	.	8dd#	8a	8F#
8ee	.	8ee	8b	8G#
8dd#	.	4r	4e	4.A
8cc#	.	.	.	.
8aa	.	8ff#	8cc#	.
=44	=44	=44	=44	=44
4gg#	2.r	4ee	4b	4B
8ff#	.	8dd#	8a	8BB
4ee	.	4ee	4g#	4E
8b	.	8r	8r	8r
=45	=45	=45	=45	=45
2bb	2.r	8r	[2.b	8r
.	.	8e	.	8G
.	.	8e	.	8G
.	.	4d#	.	4F#
8aa#	.	.	.	.
8aa	.	8r	.	8r
=46	=46	=46	=46	=46
8gg#	2.r	8r	8b]	2.r
4gg	.	8ee	8a#	.
.	.	8ee	8a#	.
8gg	.	8ee	4b	.
8ff#	.	8dd#	.	.
8r	.	8B	8r	.
=47	=47	=47	=47	=47
8r	2.r	2b	8r	[2.BB
8gg	.	.	8ee	.
8gg	.	.	8ee	.
4ff#	.	.	4dd#	.
.	.	8a#	.	.
8r	.	8a	8r	.
=48	=48	=48	=48	=48
8r	2.r	8g#	8r	2.BB_
8ee	.	4g	8b	.
8ee	.	.	8b	.
8ee	.	4f#	4b	.
8dd#	.	.	.	.
[8gg	.	8e	8a#	.
=49	=49	=49	=49	=49
8gg]	2.r	4d#	[2b	2.BB]
8ff#	.	.	.	.
4ee	.	8g	.	.
.	.	4f#	.	.
8dd#	.	.	8b]	.
[8gg	.	8e	8a#	.
=50	=50	=50	=50	=50
8gg]	2.r	4d#	4b	4BB
8ff#	.	.	.	.
4gg	.	8e	8a#	8B
.	.	4d#	4b	4BB
8ff#	.	.	.	.
8r	.	8r	8r	8r
=51	=51	=51	=51	=51
4r	2.r	4r	2.r	2.r
8b	.	8g#	.	.
16cc#	.	8a	.	.
16ee	.	.	.	.
16dd#	.	8b	.	.
16ff#	.	.	.	.
16ee	.	8cc#	.	.
16gg#	.	.	.	.
=52	=52	=52	=52	=52
16ff#	2.r	8dd#	2r	2r
16aa	.	.	.	.
16gg#	.	8ee	.	.
16bb	.	.	.	.
16aa	.	8ff#	.	.
16ccc#	.	.	.	.
[4.bb	.	8gg#	.	.
.	.	8b	8e	8G#
.	.	8b	8e	8G#
=53	=53	=53	=53	=53
8bb]	2.r	2b	4.d#	4.F#
8aa#	.	.	.	.
8aa	.	.	.	.
8gg#	.	.	8e	8E
8ff#	.	8dd#	8a	8F#
8ee	.	8ee	8b	8G#
=54	=54	=54	=54	=54
8dd#	2.r	4r	4e	4.A
8cc#	.	.	.	.
8aa	.	8ff#	8cc#	.
4gg#	.	4ee	4b	4B
8ff#	.	8dd#	8a	8BB
=55	=55	=55	=55	=55
4ee	2.r	4ee	4g#	4E
8b	.	8r	8r	8r
8b	.	8g#	8e	8e
8b	.	8g#	8e	8e
8b	.	8g#	8e	8e
=56	=56	=56	=56	=56
8ee	2.r	8g#	8e	8c#
8ee	.	8g#	8e	8c#
8ee	.	8ee	8e	8c#
8ff#	.	8dd#	8b	8B
16ff#	.	16dd#	8b	8B
16ee	.	16cc#	.	.
8ff#	.	8dd#	8b	8B
=57	=57	=57	=57	=57
4gg#	2.r	4ee	4b	4E
8gg#	.	8ee	8b	8E
8ff#	.	8dd#	8b#	8G#
8ff#	.	8dd#	8b#	8G#
8ff#	.	8dd#	8b#	8G#
=58	=58	=58	=58	=58
8ee	2.r	8g#	8cc#	8c#
16ee	.	8g#	8cc#	8c#
16dd#	.	.	.	.
8ee	.	8g#	8g#	8c#
8ff#	.	8cc#	8a	8A
8aa	.	8a	8cc#	8F#
8dd#	.	8f#	8a	8B
=59	=59	=59	=59	=59
4ee	4r	4g#	4g#	4E
8b	8g#	4.r	4.r	4.r
8cc#	8a	.	.	.
8b	8g#	.	.	.
8dd#	8f#	8a	8B	8BB
=60	=60	=60	=60	=60
8ee	8e	4g#	4B	4E
8gg#	8ee	.	.	.
8b	8g#	4.r	4.r	4.r
8cc#	8a	.	.	.
8b	8g#	.	.	.
8dd#	8f#	8a	8B	8BB
=61	=61	=61	=61	=61
4ee	4e	[2.ee	4B	4E
8e	8B	.	8G#	2r
4.e	8c#	.	8A	.
.	8B	.	8G#	.
.	8A	.	8F#	.
=62	=62	=62	=62	=62
4e	4B	2.ee_	4G#	4EE
8e	8B	.	8G#	2r
4.e	8c#	.	8A	.
.	8B	.	8G#	.
.	8A	.	8F#	.
=63	=63	=63	=63	=63
4.e	4B	4.ee]	4G#	2.EE
.	8c#	.	8A	.
4.e	4d	4g#	4B	.
.	8c#	8a	8A	.
=64	=64	=64	=64	=64
4.e	4.d	2g#	2B	4.EE
8e	4.r	.	.	8EE
8f#	.	4r	4r	4r
8g#	.	.	.	.
=65	=65	=65	=65	=65
4.e	4.d	8g#	8B	8EE
.	.	2r	2r	2r
8e	4.r	.	.	.
8f#	.	.	.	.
8g	.	8r	8r	8r
=66	=66	=66	=66	=66
4.f#	2.r	4.e	8c#	8AA#
.	.	.	8c#	8AA#
.	.	.	8c#	8AA#
8f#	.	4.d	8B	8BB
16dd	.	.	8B	8BB
16b	.	.	.	.
8f#	.	.	8B	8BB
=67	=67	=67	=67	=67
8f#	2.r	4.e	8c#	8AA#
16ee	.	.	8c#	8AA#
16cc#	.	.	.	.
8f#	.	.	8c#	8AA#
8f#	.	4.d	8B	8BB
16dd	.	.	8B	8BB
16b	.	.	.	.
8f#	.	.	8B	8BB
=68	=68	=68	=68	=68
8e#	2.r	8d	4B	8GG
16dd	.	4.r	.	4.r
16b	.	.	.	.
16dd	.	.	4r	.
16b	.	.	.	.
8e#	.	.	.	.
4r	.	8d	8B	8G
.	.	8d	8B	8G
=69	=69	=69	=69	=69
8e#	2.r	4d	4B	4G
16dd	.	.	.	.
16b	.	.	.	.
16dd	.	4r	4r	4r
16b	.	.	.	.
8e#	.	.	.	.
4r	.	8d	8B	8G
.	.	8d	8B	8G
=70	=70	=70	=70	=70
4.dd	2.r	8d	8B	8G
.	.	8d	8B	8G
.	.	8d	8B	8G
4.f	.	8d	8B	8G
.	.	8d	8B	8G
.	.	8d	8B	8G
=71	=71	=71	=71	=71
4.e	2.r	8d	8B	8G#
.	.	8d	8B	8G#
.	.	8d	8B	8G#
[4.ee	.	8d	8B	8G#
.	.	8d	8B	8G#
.	.	8d	8B	8G#
=72	=72	=72	=72	=72
4.ee]	2.r	8c#	8A	8A
.	.	8c#	8A	8A
.	.	8c#	8A	8A
4.g	.	8e	8c#	8A
.	.	8e	8c#	8A
.	.	8e	8c#	8A
=73	=73	=73	=73	=73
4.f#	2.r	8e	8c#	8A#
.	.	8e	8c#	8A#
.	.	8e	8c#	8A#
4.ff#	.	8e	8c#	8A#
.	.	8e	8c#	8A#
.	.	8e	8c#	8A#
=74	=74	=74	=74	=74
8ff#	2.r	8d	8d	8B
8ddd	.	8f#	8d	8B
8ccc#	.	8f#	8d	8B
8bb	.	8f#	8d	8B
16ddd	.	8f#	8d	8B
16ccc#	.	.	.	.
16bb	.	8f#	8d	8B
16aa	.	.	.	.
=75	=75	=75	=75	=75
8gg#	2.r	8g#	8d	8B
8bb	.	8g#	8d	8B
8aa	.	8g#	8d	8B
8gg#	.	8g#	8d	8B
16bb	.	8g#	8d	8B
16aa	.	.	.	.
16gg#	.	8g#	8d	8B
16ff#	.	.	.	.
=76	=76	=76	=76	=76
4.ee#	2.r	8g#	8c#	8c#
.	.	8g#	8c#	8c#
.	.	8g#	8c#	8c#
4.cc#	.	8g#	8e#	8c#
.	.	8g#	8e#	8c#
.	.	8g#	8e#	8c#
=77	=77	=77	=77	=77
8cc	2.r	4f#	4f#	4d
16aa	.	.	.	.
16ff#	.	.	.	.
16aa	.	4r	4r	4r
16ff#	.	.	.	.
8cc	.	.	.	.
4r	.	8a	8f#	8d
.	.	8a	8f#	8d
=78	=78	=78	=78	=78
8b#	2.r	4a	4f#	4d
16aa	.	.	.	.
16ff#	.	.	.	.
16aa	.	4r	4r	4r
16ff#	.	.	.	.
8b#	.	.	.	.
4r	.	8a	8f#	8d
.	.	8a	8f#	8d
=79	=79	=79	=79	=79
4.aa	2.r	8a	8f#	8d
.	.	8a	8f#	8d
.	.	8a	8f#	8d
4.cc	.	8a	8f#	8d
.	.	8a	8f#	8d
.	.	8a	8f#	8d
=80	=80	=80	=80	=80
4.b	2.r	8a	8f#	8d#
.	.	8a	8f#	8d#
.	.	8a	8f#	8d#
[4.bb	.	8a	8f#	8d#
.	.	8a	8f#	8d#
.	.	8a	8f#	8d#
=81	=81	=81	=81	=81
4.bb]	2.r	8g#	8g#	8e
.	.	8g#	8g#	8e
.	.	8g#	8g#	8e
4.dd	.	8b	8g#	8e
.	.	8b	8g#	8e
.	.	8b	8g#	8e
=82	=82	=82	=82	=82
4.cc#	2.r	8b	8g#	8e#
.	.	8b	8g#	8e#
.	.	8b	8g#	8e#
[4.ccc#	.	8b	8g#	8e#
.	.	8b	8g#	8e#
.	.	8b	8g#	8e#
=83	=83	=83	=83	=83
4.ccc#]	2.r	8a	8f#	8f#
.	.	8a	8f#	8f#
.	.	8a	8f#	8f#
4.ff#	.	8cc#	8f#	8A
.	.	8cc#	8f#	8A
.	.	8cc#	8f#	8A
=84	=84	=84	=84	=84
16ddd	2.r	8f#	8f#	8B
16bb	.	.	.	.
16ff#	.	4.r	4.r	4.r
16dd	.	.	.	.
16b	.	.	.	.
16dd	.	.	.	.
8b	.	.	.	.
4r	.	16dd	8f#	8B
.	.	16ff#	.	.
.	.	16dd	8f#	8B
.	.	16ff#	.	.
=85	=85	=85	=85	=85
16ddd	2.r	8ee	8b	8G#
16bb	.	.	.	.
16gg#	.	4.r	4.r	4.r
16ee	.	.	.	.
16b	.	.	.	.
16ee	.	.	.	.
8g#	.	.	.	.
4r	.	16dd	8b	8G#
.	.	16ee	.	.
.	.	16dd	8b	8G#
.	.	16ee	.	.
=86	=86	=86	=86	=86
16ccc#	2.r	8cc#	8e	8A
16aa	.	.	.	.
16ee	.	4.r	4.r	4.r
16cc#	.	.	.	.
16a	.	.	.	.
16cc#	.	.	.	.
4a	.	.	.	.
.	.	16cc#	8e	8A
.	.	16ee	.	.
8r	.	16cc#	8e	8G#
.	.	16ee	.	.
=87	=87	=87	=87	=87
16ccc#	2.r	8dd	8a	8F#
16aa	.	.	.	.
16ff#	.	4.r	4.r	4.r
16dd	.	.	.	.
16a	.	.	.	.
16dd	.	.	.	.
4f#	.	.	.	.
.	.	16cc#	8a	8F#
.	.	16dd	.	.
8r	.	16cc#	8a	8F#
.	.	16dd	.	.
=88	=88	=88	=88	=88
16bb	2.r	8b	8d	8G#
16gg#	.	.	.	.
16dd	.	4.r	4.r	4.r
16b	.	.	.	.
16g#	.	.	.	.
16b	.	.	.	.
4g#	.	.	.	.
.	.	16b	8d	8G#
.	.	16dd	.	.
8r	.	16b	8d	8F#
.	.	16dd	.	.
=89	=89	=89	=89	=89
16bb	2.r	8cc#	8g#	8E#
16gg#	.	.	.	.
16ee#	.	4.r	4.r	4.r
16cc#	.	.	.	.
16g#	.	.	.	.
16cc#	.	.	.	.
4e#	.	.	.	.
.	.	16b	8g#	8E#
.	.	16cc#	.	.
8r	.	16b	8g#	8E#
.	.	16cc#	.	.
=90	=90	=90	=90	=90
16f#	2.r	4a	4a	4F#
16cc#	.	.	.	.
16a	.	.	.	.
16cc#	.	.	.	.
16f#	.	8r	8r	8r
16cc#	.	.	.	.
16g#	.	4cc#	4b	4E#
16cc#	.	.	.	.
16ee#	.	.	.	.
16cc#	.	.	.	.
16ccc#	.	8r	8r	8r
16cc#	.	.	.	.
=91	=91	=91	=91	=91
16aa	2.r	4cc#	4a	4F#
16cc#	.	.	.	.
16a	.	.	.	.
16cc#	.	.	.	.
16f#	.	8r	8r	8r
16cc#	.	.	.	.
16g#	.	4cc#	4b	4E#
16cc#	.	.	.	.
16ee#	.	.	.	.
16cc#	.	.	.	.
16ccc#	.	8r	8r	8r
16cc#	.	.	.	.
=92	=92	=92	=92	=92
16aa	2.r	4cc#	4a	4F#
16cc#	.	.	.	.
16a	.	.	.	.
16cc#	.	.	.	.
16f#	.	8r	8r	8r
16cc#	.	.	.	.
16g#	.	4cc#	4b	4E#
16cc#	.	.	.	.
16ee#	.	.	.	.
16cc#	.	.	.	.
16ccc#	.	8r	8r	8r
16cc#	.	.	.	.
=93	=93	=93	=93	=93
16aa	2.r	4cc#	4f#	4F#
16cc#	.	.	.	.
16aa	.	.	.	.
16cc#	.	.	.	.
16aa#	.	4.r	8e	2r
16cc#	.	.	.	.
16bb	.	.	4d#	.
16cc#	.	.	.	.
16bb	.	.	.	.
16cc#	.	.	.	.
16bb#	.	8f#	8d	.
16cc#	.	.	.	.
=94	=94	=94	=94	=94
16ccc#	2.r	4e#	4c#	4C#
16cc#	.	.	.	.
16ccc#	.	.	.	.
16cc#	.	.	.	.
16gg#	.	4.r	8e#	2r
16cc#	.	.	.	.
16aa	.	.	4f#	.
16cc#	.	.	.	.
16aa	.	.	.	.
16cc#	.	.	.	.
16bb#	.	8f#	8d	.
16cc#	.	.	.	.
=95	=95	=95	=95	=95
16ccc#	2.r	4e#	4c#	4C#
16cc#	.	.	.	.
16ccc#	.	.	.	.
16cc#	.	.	.	.
16gg#	.	4.r	8e#	2r
16cc#	.	.	.	.
16aa	.	.	4f#	.
16cc#	.	.	.	.
16aa	.	.	.	.
16cc#	.	.	.	.
16bb#	.	8f#	8d	.
16cc#	.	.	.	.
=96	=96	=96	=96	=96
16ccc#	2.r	4e#	4c#	4C#
16cc#	.	.	.	.
16ccc#	.	.	.	.
16cc#	.	.	.	.
16ccc#	.	2r	2r	2r
16cc#	.	.	.	.
16ccc#	.	.	.	.
16cc#	.	.	.	.
16ccc#	.	.	.	.
16cc#	.	.	.	.
16ccc#	.	.	.	.
16cc#	.	.	.	.
=97	=97	=97	=97	=97
8dd	2.r	[2.g#	[2.e#	[2.BB
8ddd	.	.	.	.
8ddd	.	.	.	.
8ddd	.	.	.	.
16bb	.	.	.	.
32aa#	.	.	.	.
32bb	.	.	.	.
8ddd	.	.	.	.
=98	=98	=98	=98	=98
16ee#	2.r	2.g#]	2.e#]	2.BB]
32dd#	.	.	.	.
32ee#	.	.	.	.
8gg#	.	.	.	.
16b	.	.	.	.
32a#	.	.	.	.
32b	.	.	.	.
8dd	.	.	.	.
16g#	.	.	.	.
32f#	.	.	.	.
32g#	.	.	.	.
8b	.	.	.	.
=99	=99	=99	=99	=99
2d	2.r	2.B	2.G#	2.EE#
8c#	.	.	.	.
8B	.	.	.	.
=100	=100	=100	=100	=100
16A	2.r	4A	4A	4FF#
16f#	.	.	.	.
16a	.	.	.	.
16f#	.	.	.	.
16a	.	8r	8r	8r
16f#	.	.	.	.
8g#	.	4B	4B	4BB
8b	.	.	.	.
8dd	.	8r	8r	8r
=101	=101	=101	=101	=101
16c#	2.r	4c#	4c#	4C#
16e#	.	.	.	.
16g#	.	.	.	.
16e#	.	.	.	.
16g#	.	8r	8r	8r
16e#	.	.	.	.
8f#	.	4d	4d	4D
8a	.	.	.	.
8cc#	.	8r	8r	8r
=102	=102	=102	=102	=102
16A	2.r	4A	4A	4AA
16f#	.	.	.	.
16a	.	.	.	.
16f#	.	.	.	.
16a	.	8r	8r	8r
16f#	.	.	.	.
8g#	.	4B	4B	4BB
8b	.	.	.	.
8dd	.	8r	8r	8r
=103	=103	=103	=103	=103
16c#	2.r	4c#	4c#	4C#
16e#	.	.	.	.
16g#	.	.	.	.
16e#	.	.	.	.
16g#	.	8r	8r	8r
16e#	.	.	.	.
8f#	.	4f#	4f#	4F#
8r	.	.	.	.
8cc#	.	8r	8r	8r
=104	=104	=104	=104	=104
8ff#	2.r	8cc#	8a	8f#
8ff#	.	8cc#	8a	8f#
8ff#	.	8cc#	8a	8f#
8gg#	.	8cc#	8g#	8e#
8gg#	.	8cc#	8g#	8e#
8gg#	.	8cc#	8g#	8e#
=105	=105	=105	=105	=105
8aa	2.r	8cc#	8f#	8f#
16aa	.	16ff#	8cc#	8f#
16gg#	.	16ee#	.	.
8aa	.	8ff#	8cc#	8f#
8gg#	.	8ee#	8cc#	4c#
8r	.	4r	4r	.
8cc#	.	.	.	8r
=106	=106	=106	=106	=106
8ff#	2.r	8cc#	8a	8f#
8ff#	.	8cc#	8a	8f#
8ff#	.	8cc#	8a	8f#
8gg#	.	8dd	8b	8e
8gg#	.	8dd	8b	8e
8gg#	.	8dd	8b	8e
=107	=107	=107	=107	=107
8aa	2.r	8cc#	8a	8A
16aa	.	16aa	8e	8A
16bb	.	16gg#	.	.
8ccc#	.	8aa	8e	8A
8bb	.	8gg#	8e	8E
4r	.	4r	4r	4r
=108	=108	=108	=108	=108
2.r	2.r	2.r	2.r	2.r
=109	=109	=109	=109	=109
4.a	2.r	8r	8r	8r
.	.	8c#	8e	8A
.	.	8c#	8e	8A
16cc#	.	4c#	4e	4A
16a	.	.	.	.
16ee	.	.	.	.
16cc#	.	.	.	.
16a	.	8r	8r	8r
16e	.	.	.	.
=110	=110	=110	=110	=110
8c#	2.r	4r	4r	4r
8A	.	.	.	.
8B	.	8G#	8E	8E
8c#	.	4A	4E	4A
8A	.	.	.	.
8r	.	8r	8r	8r
=111	=111	=111	=111	=111
8b	8e	8r	8r	8r
4r	4r	8b	8g#	8E
.	.	8b	8g#	8E
8cc#	8a	8r	8r	8r
4r	4r	8cc#	8a	8AA
.	.	8cc#	8a	8AA
=112	=112	=112	=112	=112
8dd	2.r	8r	8r	8r
16dd	.	8b	8e	8GG#
16cc#	.	.	.	.
8dd	.	8b	8e	8GG#
8cc#	.	8a	8e	4AA
4r	.	4r	4r	.
.	.	.	.	8r
=113	=113	=113	=113	=113
4.a	2.r	8r	8r	8r
.	.	8c	8e	8A
.	.	8c	8e	8A
16cc	.	4c	4e	4A
16a	.	.	.	.
16ee	.	.	.	.
16cc	.	.	.	.
16a	.	8r	8r	8r
16e	.	.	.	.
=114	=114	=114	=114	=114
8c	2.r	4r	4r	4r
8A	.	.	.	.
8B	.	8G#	8E	8E
8c	.	4A	4E	4A
8A	.	.	.	.
8ee	.	8r	8c	8r
=115	=115	=115	=115	=115
16ff	2.r	4r	4d	2.r
16aa	.	.	.	.
16ff	.	.	.	.
16aa	.	.	.	.
16ff	.	8a	8f	.
16dd	.	.	.	.
8b	.	16b	4g	.
.	.	16dd	.	.
8r	.	16b	.	.
.	.	16dd	.	.
8dd	.	16b	8B	.
.	.	16g	.	.
=116	=116	=116	=116	=116
16ee	2.r	8e	4c	2.r
16gg	.	.	.	.
16ee	.	8r	.	.
16gg	.	.	.	.
16ee	.	8g	8e	.
16cc	.	.	.	.
8a	.	16a	4f	.
.	.	16cc	.	.
8r	.	16a	.	.
.	.	16cc	.	.
8cc	.	16a	8A	.
.	.	16f	.	.
=117	=117	=117	=117	=117
16dd	2.r	8d	4B	2.r
16ff	.	.	.	.
16dd	.	8r	.	.
16ff	.	.	.	.
16dd	.	8d	8d	.
16b	.	.	.	.
8g#	.	16g#	4e	.
.	.	16b	.	.
8r	.	16g#	.	.
.	.	16b	.	.
8b	.	16g#	8G#	.
.	.	16e	.	.
=118	=118	=118	=118	=118
16cc	2.r	8cc	4A	2.r
16ee	.	.	.	.
16cc	.	2r	.	.
16ee	.	.	.	.
8b	.	.	8G	.
16a	.	.	4F	.
16cc	.	.	.	.
16a	.	.	.	.
16cc	.	.	.	.
8d#	.	8A	8F	.
=119	=119	=119	=119	=119
4e	2.r	8G#	8E	8EE
.	.	8G#	8B	8E
8e	.	8G#	8B	8E
4g#	.	8e	8B	8EE
.	.	8e	8B	8E
8g#	.	8e	8B	8E
=120	=120	=120	=120	=120
4b	2.r	8g#	8E	8EE
.	.	8g#	8e	8E
8b	.	8g#	8e	8E
4dd	.	8b	8G#	8EE
.	.	8b	8g#	8E
8dd	.	8b	8g#	8E
=121	=121	=121	=121	=121
2ff#	2.r	2dd	8g#	4GG#
.	.	.	8g#	.
.	.	.	8g#	2r
.	.	.	8g#	.
8ee	.	8cc#	8g#	.
8dd	.	8b	8g#	.
=122	=122	=122	=122	=122
16cc#	2.r	2a	4a	2.r
16ee	.	.	.	.
16cc#	.	.	.	.
16ee	.	.	.	.
16dd	.	.	2r	.
16ff#	.	.	.	.
8b	.	.	.	.
4r	.	8g#	.	.
.	.	8f#	.	.
=123	=123	=123	=123	=123
16b	2.r	2g#	2.r	2.r
16dd	.	.	.	.
16b	.	.	.	.
16dd	.	.	.	.
16cc#	.	.	.	.
16ee	.	.	.	.
8a	.	.	.	.
4r	.	8f#	.	.
.	.	8e	.	.
=124	=124	=124	=124	=124
16a	2.r	2f#	2.r	2.r
16cc#	.	.	.	.
16a	.	.	.	.
16cc#	.	.	.	.
16b	.	.	.	.
16dd	.	.	.	.
16g#	.	.	.	.
16b	.	.	.	.
16g#	.	8e	.	.
16b	.	.	.	.
16a	.	8d	.	.
16cc#	.	.	.	.
=125	=125	=125	=125	=125
16f#	2.r	2.d	2.r	2.r
16a	.	.	.	.
16f#	.	.	.	.
16a	.	.	.	.
16g#	.	.	.	.
16b	.	.	.	.
8e	.	.	.	.
8f#	.	.	.	.
8g#	.	.	.	.
=126	=126	=126	=126	=126
8a	2.r	4c#	4r	4r
16cc#	.	.	.	.
16a	.	.	.	.
8e	.	8g#	8e	8d
8a	.	8a	4e	4c#
16cc#	.	8e	.	.
16a	.	.	.	.
8e	.	8g#	8e	8d
=127	=127	=127	=127	=127
8a	2.r	8a	4e	4c#
16cc#	.	8e	.	.
16a	.	.	.	.
8e	.	8g#	8B	8d
8a	.	8a	8A	8c#
8g#	.	8e	8B	8d
8a	.	8e	8A	8c#
=128	=128	=128	=128	=128
8g#	2.r	8e	8B	8d
8a	.	8e	8A	8c#
8g#	.	8e	8B	8d
8a	.	8e	8A	8c#
8g#	.	8e	8B	8d
8a	.	8e	8A	8c#
=129	=129	=129	=129	=129
16g#	2.r	4e	4d	4B
16a	.	.	.	.
16b	.	.	.	.
16cc#	.	.	.	.
16dd	.	2r	2r	2r
16ee	.	.	.	.
16dd	.	.	.	.
16cc#	.	.	.	.
16b	.	.	.	.
16a	.	.	.	.
16g#	.	.	.	.
16f#	.	.	.	.
=130	=130	=130	=130	=130
4e	2.r	2.r	2.r	2.r
4.r	.	.	.	.
8ee	.	.	.	.
=131	=131	=131	=131	=131
[2ccc	2.r	4.ee	4.A	8A
.	.	.	.	8A
.	.	.	.	8A
.	.	[4.ff	4.a	8D
8ccc]	.	.	.	8D
8ddd	.	.	.	8D
=132	=132	=132	=132	=132
8bb	2.r	4.ff]	4.d	8G
8aa	.	.	.	8G
8gg	.	.	.	8G
4gg	.	4.dd	4.G	8BB
.	.	.	.	8BB
8ff	.	.	.	8BB
=133	=133	=133	=133	=133
8ee	2.r	4.g	4.c	8C
8dd	.	.	.	8C
8ee	.	.	.	8C
8ff#	.	4.cc	4.A	8D
8ee	.	.	.	8D
8ff#	.	.	.	8D
=134	=134	=134	=134	=134
4.gg	2.r	8b	4G	4GG
.	.	16b	.	.
.	.	16cc	.	.
.	.	16dd	2r	2r
.	.	16cc	.	.
4g	.	8b	.	.
.	.	4r	.	.
8gg	.	.	.	.
=135	=135	=135	=135	=135
8gg	2.r	16b	8g	2.r
.	.	16dd	.	.
8g	.	16b	8g	.
.	.	16dd	.	.
8gg	.	16b	8g	.
.	.	16dd	.	.
8gg	.	16cc#	8e	.
.	.	16ee	.	.
8g	.	16cc#	8e	.
.	.	16ee	.	.
8gg	.	16cc#	8a	.
.	.	16ee	.	.
=136	=136	=136	=136	=136
8ff#	2.r	4dd	4d	2.r
16aa	.	.	.	.
16gg	.	.	.	.
16ff#	.	2r	2r	.
16ee	.	.	.	.
4dd	.	.	.	.
8aa	.	.	.	.
=137	=137	=137	=137	=137
8aa	2.r	16cc	8A	2.r
.	.	16ee	.	.
8a	.	16cc	8a	.
.	.	16ee	.	.
8aa	.	16cc	8a	.
.	.	16ee	.	.
8aa	.	16dd#	8f#	.
.	.	16ff#	.	.
8a	.	16dd#	8b	.
.	.	16ff#	.	.
8aa	.	16dd#	8b	.
.	.	16ff#	.	.
=138	=138	=138	=138	=138
8gg#	2.r	4ee	4e	2.r
16bb	.	.	.	.
16aa	.	.	.	.
16gg#	.	2r	2r	.
16ff#	.	.	.	.
4ee	.	.	.	.
16g#	.	.	.	.
16e	.	.	.	.
=139	=139	=139	=139	=139
16cc	2.r	8r	8r	8r
16a	.	.	.	.
16cc	.	8c	8F#	8D#
16a	.	.	.	.
16g#	.	8B	8G#	8E
16e	.	.	.	.
16cc	.	8r	8r	8r
16a	.	.	.	.
16cc	.	8c	8F#	8D#
16a	.	.	.	.
16g#	.	8B	8G#	8E
16e	.	.	.	.
=140	=140	=140	=140	=140
16cc	2.r	8r	8r	8r
16a	.	.	.	.
16cc	.	8c	8F#	8D#
16a	.	.	.	.
16g#	.	8B	8G#	8E
16e	.	.	.	.
16cc	.	8r	8r	8r
16a	.	.	.	.
16cc	.	8c	8F#	8D#
16a	.	.	.	.
16g#	.	8B	8G#	8E
16e	.	.	.	.
=141	=141	=141	=141	=141
16f#	2.r	2.r	2.r	2.r
16a	.	.	.	.
16g#	.	.	.	.
16b	.	.	.	.
16a	.	.	.	.
16cc#	.	.	.	.
16b	.	.	.	.
16dd	.	.	.	.
16cc#	.	.	.	.
16ee	.	.	.	.
16dd	.	.	.	.
16ff#	.	.	.	.
=142	=142	=142	=142	=142
2ee	2.r	8r	8r	8r
.	.	8e	8A	8C#
.	.	8e	8A	8C#
.	.	[4.e	4G#	4.BB
8dd#	.	.	.	.
8dd	.	.	8r	.
=143	=143	=143	=143	=143
8cc#	2.r	8e]	8A	8AA
8b	.	8g#	8d	8BB
8a	.	8a	8e	8C#
8g#	.	4r	4A	4.D
8f#	.	.	.	.
8dd	.	8b	8f#	.
=144	=144	=144	=144	=144
4cc#	2.r	4a	4e	4E
8b	.	8g#	8d	8EE
4a	.	4a	4c#	4AA
8ee	.	8r	8r	8r
=145	=145	=145	=145	=145
2eee	2.r	8r	[2.ee	8r
.	.	8a	.	8c
.	.	8a	.	8c
.	.	4g#	.	4B
8ddd#	.	.	.	.
8ddd	.	8r	.	8r
=146	=146	=146	=146	=146
8ccc#	2.r	8r	8ee]	2.r
4.ccc	.	8aa	8dd#	.
.	.	8aa	8dd#	.
.	.	8aa	4ee	.
8bb	.	8gg#	.	.
8r	.	8e	8r	.
=147	=147	=147	=147	=147
8r	2.r	2ee	8r	[2.E
8ccc	.	.	8a	.
8ccc	.	.	8a	.
4bb	.	.	4g#	.
.	.	8dd#	.	.
8r	.	8dd	8r	.
=148	=148	=148	=148	=148
8r	2.r	4cc#	8r	2.E_
8aa	.	.	8ee	.
8aa	.	8cc	8ee	.
8aa	.	4b	4ee	.
8gg#	.	.	.	.
[8ccc	.	8a	8dd#	.
=149	=149	=149	=149	=149
8ccc]	2.r	4g#	[2ee	2.E]
8bb	.	.	.	.
4aa	.	8cc	.	.
.	.	4b	.	.
8gg#	.	.	8ee]	.
[8ccc	.	8a	8dd#	.
=150	=150	=150	=150	=150
8ccc]	2.r	4g#	4ee	[2E
8bb	.	.	.	.
8ccc	.	8a	8dd#	.
8ccc	.	4g#	4ee	.
8bb	.	.	.	8E]
8r	.	8r	8r	8r
=151	=151	=151	=151	=151
4r	2.r	4r	2.r	2.r
8e	.	8c#	.	.
16f#	.	8d	.	.
16a	.	.	.	.
16g#	.	8e	.	.
16b	.	.	.	.
16a	.	8f#	.	.
16cc#	.	.	.	.
=152	=152	=152	=152	=152
16b	2.r	8g#	2r	2r
16dd	.	.	.	.
16cc#	.	8a	.	.
16ee	.	.	.	.
16dd	.	8b	.	.
16ff#	.	.	.	.
[4.ee	.	8cc#	.	.
.	.	8e	8A	8C#
.	.	8e	8A	8C#
=153	=153	=153	=153	=153
8ee]	2.r	4.e	4.G#	4.BB
8dd#	.	.	.	.
8dd	.	.	.	.
8cc#	.	8e	8A	8AA
8b	.	8g#	8d	8BB
8a	.	8a	8e	8C#
=154	=154	=154	=154	=154
8g#	2.r	4r	4A	4.D
8f#	.	.	.	.
8dd	.	8b	8f#	.
4cc#	.	4a	4e	4E
8b	.	8g#	8d	8EE
=155	=155	=155	=155	=155
4a	2.r	4a	4c#	4AA
8e	.	8r	8r	8r
8e	.	8c#	8A	8A
8e	.	8c#	8A	8A
8e	.	8c#	8A	8A
=156	=156	=156	=156	=156
8a	2.r	8c#	8A	8F#
8a	.	8c#	8A	8F#
8a	.	8a	8A	8F#
8b	.	8g#	8e	8E
16b	.	16g#	8e	8E
16a	.	16f#	.	.
8b	.	8g#	8e	8E
=157	=157	=157	=157	=157
4cc#	2.r	4a	4e	4AA
8cc#	.	8a	8e	8AA
8b	.	8g#	8e#	8C#
8b	.	8g#	8e#	8C#
8b	.	8g#	8e#	8C#
=158	=158	=158	=158	=158
8a	2.r	8c#	8f#	8F#
16a	.	8c#	8f#	8F#
16g#	.	.	.	.
8a	.	8c#	8c#	8F#
8b	.	8f#	8d	8D
8dd	.	8d	8f#	8BB
8g#	.	8B	8d	8E
=159	=159	=159	=159	=159
4a	4.r	4c#	4c#	4AA
8e	.	4.r	4.r	4.r
8f#	8d	.	.	.
8e	8c#	.	.	.
8g#	8B	8d	8E	8EE
=160	=160	=160	=160	=160
8a	8A	4c#	4E	4AA
8cc#	8a	.	.	.
8e	8c#	4.r	4.r	4.r
8f#	8d	.	.	.
8e	8c#	.	.	.
8g#	8B	8d	8E	8EE
=161	=161	=161	=161	=161
4a	4A	4c#	[2.A	4AA
8a	8e	8c#	.	2r
[4.a	8f#	8d	.	.
.	8e	8c#	.	.
.	8d	8B	.	.
=162	=162	=162	=162	=162
4a]	4e	4c#	2.A_	4AA
8a	8e	8c#	.	2r
[4.a	8f#	8d	.	.
.	8e	8c#	.	.
.	8d	8B	.	.
=163	=163	=163	=163	=163
4.a]	4e	4c#	2.A]	[2.AA
.	8f#	8d	.	.
4.a	4e	4c#	.	.
.	8f#	8d	.	.
=164	=164	=164	=164	=164
4.a	4.e	4c#	4A	4AA]
.	.	2r	2r	2r
4.a	8e	.	.	.
.	8f#	.	.	.
.	8g	.	.	.
=165	=165	=165	=165	=165
[2.a	[2.e	[2.c#	[2.A	[2.AA
=166	=166	=166	=166	=166
8a]	8e]	4c#]	4A]	4AA]
2r	2r	.	.	.
.	.	2r	2r	2r
8r	8r	.	.	.
==	==	==	==	==
*-	*-	*-	*-	*-
!!!RWG1: This file contains only pitch and duration data.
!!!RWG2: Transposing instruments are not transposed.
!!!RWG3: Spines may have incompatible meters.
!!!RWG4: Durations of rests and tied notes may be interpreted.
!!!RWG: Key is interpreted using the Humdrum key tool.
!!!GTL: 6 Divertimentos ("Sun")
!!!AFT: stage1
!!!END: 1997/04/15
!!format changes:
!!content changes:
!!public access: complete
!!!KEY: 3376909987
!!!EMD: Converted from MuseData to Humdrum Dec 16, 2000, by Andreas Kornstaedt using muse2kern.
